icons/4_Outdated/F-Secure v1.svg

<svg width="1024" height="1024" viewBox="0 0 1024 1024" fill="none" xmlns="http://www.w3.org/2000/svg">
<g clip-path="url(#clip0_3_548)">
<path d="M512 1024C794.77 1024 1024 794.77 1024 512C1024 229.23 794.77 0 512 0C229.23 0 0 229.23 0 512C0 794.77 229.23 1024 512 1024Z" fill="#54688C"/>
<path d="M767.89 339.779C766.44 347.779 760.32 380.499 745.46 428.549C739.62 447.449 719.1 457.289 700.74 451.059C591.85 414.129 469.74 403.709 329.84 446.149C304.59 453.809 292.08 474.839 293.93 491.549C294.02 492.429 293.62 492.739 293.35 492.089C278.739 456.669 266.802 420.203 257.64 382.999C252.11 360.549 260.64 333.919 292.16 324.289C439.97 279.159 607.16 281.659 766.34 337.179C766.868 337.353 767.316 337.712 767.601 338.19C767.885 338.668 767.988 339.232 767.89 339.779ZM397.94 442.639C379.5 446.539 354.11 452.519 335.24 458.969C297.24 471.969 298.86 518.139 319.24 532.969C320.64 524.369 329.77 512.729 340.01 508.779C378.488 494.032 418.864 484.821 459.93 481.419C437.248 472.041 416.296 458.933 397.94 442.639ZM700.39 535.369C590.52 482.759 458.39 478.959 349.39 521.369C331.45 528.369 320.03 550.299 331.46 571.159C351.187 606.962 373.615 641.208 398.55 673.599C394.95 661.149 401.35 638.049 425.7 630.599C492.7 609.929 563.34 618.689 610.32 637.599C617.888 640.547 626.241 640.798 633.972 638.31C641.703 635.822 648.342 630.747 652.77 623.939C676 589.319 696.93 547.649 701.54 538.279C701.688 538.019 701.776 537.729 701.797 537.43C701.818 537.131 701.771 536.832 701.661 536.553C701.551 536.275 701.379 536.025 701.159 535.822C700.939 535.619 700.676 535.467 700.39 535.379V535.369ZM591.31 700.999C579.31 697.579 549.6 674.199 538.07 662.659C530.77 655.369 520.13 644.979 508.75 632.529C483.17 632.529 458.14 635.179 431.46 643.589C406.94 651.319 404.54 680.099 415.29 694.839C433.76 717.579 446.45 729.999 467 751.169C488.41 773.229 526.5 773.789 548.52 751.649C564.52 735.499 574.38 724.909 592.47 704.439C592.715 704.164 592.883 703.828 592.957 703.467C593.03 703.106 593.007 702.732 592.889 702.382C592.771 702.033 592.563 701.721 592.286 701.478C592.009 701.235 591.672 701.07 591.31 700.999Z" fill="white"/>
</g>
<defs>
<clipPath id="clip0_3_548">
<rect width="1024" height="1024" fill="white"/>
</clipPath>
</defs>
</svg>

<svg width="1024" height="1024" fill="none" xmlns="http://www.w3.org/2000/svg"><g clip-path="url(#a)"><path d="M512 1024c282.77 0 512-229.23 512-512S794.77 0 512 0 0 229.23 0 512s229.23 512 512 512Z" fill="#54688C"/><path d="M767.89 339.779c-1.45 8-7.57 40.72-22.43 88.77-5.84 18.9-26.36 28.74-44.72 22.51-108.89-36.93-231-47.35-370.9-4.91-25.25 7.66-37.76 28.69-35.91 45.4.09.88-.31 1.19-.58.54a767.075 767.075 0 0 1-35.71-109.09c-5.53-22.45 3-49.08 34.52-58.71 147.81-45.13 315-42.63 474.18 12.89a2.31 2.31 0 0 1 1.55 2.6Zm-369.95 102.86c-18.44 3.9-43.83 9.88-62.7 16.33-38 13-36.38 59.17-16 74 1.4-8.6 10.53-20.24 20.77-24.19a435.573 435.573 0 0 1 119.92-27.36 220.004 220.004 0 0 1-61.99-38.78Zm302.45 92.73c-109.87-52.61-242-56.41-351-14-17.94 7-29.36 28.93-17.93 49.79a803.965 803.965 0 0 0 67.09 102.44c-3.6-12.45 2.8-35.55 27.15-43 67-20.67 137.64-11.91 184.62 7a35.339 35.339 0 0 0 42.45-13.66c23.23-34.62 44.16-76.29 48.77-85.66a2 2 0 0 0-1.15-2.9v-.01Zm-109.08 165.63c-12-3.42-41.71-26.8-53.24-38.34-7.3-7.29-17.94-17.68-29.32-30.13-25.58 0-50.61 2.65-77.29 11.06-24.52 7.73-26.92 36.51-16.17 51.25 18.47 22.74 31.16 35.16 51.71 56.33 21.41 22.06 59.5 22.62 81.52.48 16-16.15 25.86-26.74 43.95-47.21a2.094 2.094 0 0 0 .419-2.057 2.096 2.096 0 0 0-1.579-1.383Z" fill="#fff"/></g><defs><clipPath id="a"><path fill="#fff" d="M0 0h1024v1024H0z"/></clipPath></defs></svg>
